Catalina-light/actions/16/paper-color.svg

<!DOCTYPE svg>
<svg version="1.1" viewBox="0 0 16 16" xmlns="http://www.w3.org/2000/svg">
<defs>
<style id="current-color-scheme" type="text/css">.ColorScheme-Text {
                color:#363636;
            }</style>
</defs>
<path class="ColorScheme-Text" d="m9 13h4v-7h-3v-3h-4v-1h5l3 3v9h-5v-1z" fill="#363636"/>
<path class="ColorScheme-Text" d="m5.0039 2.0293c-0.56243 1.9627-1.7028 3.6747-2.819 5.3578-0.64227 1.0072-1.3722 2.1535-1.1348 3.4054 0.25905 1.7615 1.8918 3.1314 3.6462 3.2257 1.7979 0.167 3.6551-1.0044 4.156-2.7622 0.264-0.8208 0.16611-1.6839-0.21644-2.4512-0.76766-1.547-1.8905-2.8856-2.6692-4.428-0.39056-0.75086-0.7193-1.5368-0.96266-2.3476zm2.7676 6.2246c0.39592 0.66586 0.74179 1.4131 0.65017 2.2088-0.10143 1.582-1.5099 2.8867-3.0671 3.0048-0.83274 0.0856-1.6916-0.141-2.374-0.6257 1.8249 0.4459 3.8997-0.5563 4.6029-2.3153 0.30266-0.71534 0.34416-1.5166 0.18812-2.2726z" fill="#363636"/>
</svg>

<!DOCTYPE svg>
<svg xmlns="http://www.w3.org/2000/svg" version="1.1" viewBox="0 0 16 16">
    <defs>
        <style id="current-color-scheme" type="text/css">
            .ColorScheme-Text {
                color:#363636;
            }
        </style>
    </defs>
    <path class="ColorScheme-Text" style="fill:currentColor; fill-opacity:1; stroke:none" d="M 9 13 L 13 13 L 13 6 L 10 6 L 10 3 L 6 3 L 6 2 L 11 2 L 14 5 L 14 14 L 9 14 L 9 13 Z"/>
    <path class="ColorScheme-Text" style="fill:currentColor; fill-opacity:1; stroke:none" d="M 5.00391 2.0293 C 4.44148 3.99204 3.30112 5.70402 2.18489 7.3871 C 1.54262 8.39426 0.81264 9.54061 1.05005 10.7925 C 1.3091 12.554 2.94184 13.9239 4.69622 14.0182 C 6.49415 14.1852 8.35128 13.0138 8.85221 11.256 C 9.11621 10.4352 9.01832 9.57207 8.63577 8.80484 C 7.86811 7.25787 6.7453 5.91923 5.96657 4.37688 C 5.57601 3.62602 5.24727 2.84012 5.00391 2.0293 Z M 7.77148 8.25391 C 8.1674 8.91977 8.51327 9.66701 8.42165 10.4627 C 8.32022 12.0447 6.91171 13.3494 5.35452 13.4675 C 4.52178 13.5531 3.66287 13.3265 2.98047 12.8418 C 4.80534 13.2877 6.8802 12.2855 7.58336 10.5265 C 7.88602 9.81116 7.92752 9.00985 7.77148 8.25391 Z"/>
</svg>
